X:2
T:Jodler-Marsch. CF 7- (mr07346)
S:Hanny Christen. Bd.IV  Aargau, Basel I. S.302 (PL07352) orig. G,C
S:Repertoire der "Jourdan-Musig", Muttenz.  S.270-353
S:Ãœberliefert durch Herrn Mesmer, Mai 1941
R:Jodel-Marsch
M:2/4
L:1/8
K:C %%MIDI gchordon
G | ("C"G3E) | Ge dc | "G7"BD F>B | D4 | BD F>B | D3B | "C"cE G>c | C4 | (G3E) | Ge dc | 
"G7"BD F>B | D4 | BD F>B | D3B | "C".c2z2 | z2zG |: ("C"A3G) | (EG) (CG) | ("G7"DG)(F2 | F)c BA | 
(A3G) | (FG) (DG) | ("C"CG)(E2 | E)c BA | A3G | (EG) (CG) | ("G7"DG) (F2 | F)c BA | (A3G) | 
^FG f>B |1 "C".c2z2 | zc BA :|2 "C"cB cB | cc cz || [K:F] "F"z2zC |: "F"A3A | G2F2 | {/E}"C7"B3B | 
E2zC | B3B | A2B2 | ("F"c4 | c2)zc | "F7"c3c | B2A2 | "Gm/Bb"d3d | G3A | ("C7"B3E) | (BC) (BC) | 
("F"F4 | F2)zc | "F7"c3c | B2A2 | "Gm/Bb"d3d | G3A | ("C7"B3E) | (BE) (BE) | "F".F2 "C7".c(d/2e/2) |1 "F"ff fC :|2 "F"ff fz |] 
%W:Anmerkung H.C.: Ziefen/LÃ¤ufelfingen, Arisdorf, Chur, Oberiberg, SchÃ¤chenthal
% mr07346
% June 29, 2017

